src/icons/solid/folder-remove.svg

<svg width="20" height="20" viewBox="0 0 20 20" fill="none" xmlns="http://www.w3.org/2000/svg">
<path d="M2 6C2 4.89543 2.89543 4 4 4H9L11 6H16C17.1046 6 18 6.89543 18 8V14C18 15.1046 17.1046 16 16 16H4C2.89543 16 2 15.1046 2 14V6Z" fill="#374151"/>
<path d="M8 11H12" stroke="white" stroke-width="2" stroke-linecap="round" stroke-linejoin="round"/>
</svg>

<svg xmlns="http://www.w3.org/2000/svg" viewBox="0 0 20 20" fill="currentColor">
  <path d="M2 6a2 2 0 012-2h5l2 2h5a2 2 0 012 2v6a2 2 0 01-2 2H4a2 2 0 01-2-2V6z"/>
  <path stroke="#fff" stroke-linecap="round" stroke-linejoin="round" stroke-width="2" d="M8 11h4"/>
</svg>
